indy/rudy/images/icons/icon_back.svg

<svg viewBox="0 0 512 512" xmlns="http://www.w3.org/2000/svg"><path d="m256 512c-140.609375 0-256-115.390625-256-256s115.390625-256 256-256 256 115.390625 256 256-115.390625 256-256 256zm0 0" fill="#deecf1"/><path d="m512 256c0-140.609375-115.390625-256-256-256v512c140.609375 0 256-115.390625 256-256zm0 0" fill="#c6e2e7"/><path d="m256 286.003906 120 89.996094v-240l-120 89.996094v-89.996094l-160.003906 120 160.003906 120zm0 0" fill="#384949"/><path d="m256 286.003906 120 89.996094v-240l-120 89.996094zm0 0" fill="#293939"/></svg>

<svg id="Layer_1" data-name="Layer 1" xmlns="http://www.w3.org/2000/svg" viewBox="0 0 512 512"><defs><style>.cls-1{fill:#deecf1;}.cls-2{fill:#c6e2e7;}.cls-3{fill:#384949;}.cls-4{fill:#293939;}</style></defs><path class="cls-1" d="M256,512C115.39,512,0,396.61,0,256S115.39,0,256,0,512,115.39,512,256,396.61,512,256,512Z"/><path class="cls-2" d="M512,256C512,115.39,396.61,0,256,0V512C396.61,512,512,396.61,512,256Z"/><path class="cls-3" d="M256,286l120,90V136L256,226V136L96,256,256,376Z"/><path class="cls-4" d="M256,286l120,90V136L256,226Z"/></svg>
